icons/simcard.svg

<svg width="24" height="24" viewBox="0 0 24 24" fill="none" xmlns="http://www.w3.org/2000/svg">
<path fill-rule="evenodd" clip-rule="evenodd" d="M18.8403 3.23053C18.8204 3.22666 18.7775 3.22307 18.7061 3.24346L18.6051 3.27232H10.4C9.87864 3.27232 9.27598 3.50704 8.93038 3.85265L5.63038 7.15265C5.27546 7.50757 5.05005 8.01488 5.05005 8.62232V20.4223C5.05005 20.6081 5.21426 20.7723 5.40005 20.7723H18.6C18.7858 20.7723 18.95 20.6081 18.95 20.4223V3.42232C18.95 3.32721 18.911 3.27201 18.8858 3.25126C18.8741 3.24166 18.8604 3.2344 18.8403 3.23053ZM19.8393 2.09337C20.2391 2.42262 20.4501 2.91742 20.4501 3.42232V20.4223C20.4501 21.4365 19.6143 22.2723 18.6 22.2723H5.40005C4.38583 22.2723 3.55005 21.4365 3.55005 20.4223V8.62232C3.55005 7.62975 3.92464 6.73706 4.56972 6.09199L7.86972 2.79199C8.52412 2.13759 9.52145 1.77232 10.4 1.77232H18.4075C18.9391 1.65395 19.4518 1.77425 19.8393 2.09337Z" fill="black"/>
<path fill-rule="evenodd" clip-rule="evenodd" d="M14.5 6.47229C14.9142 6.47229 15.25 6.80808 15.25 7.22229V11.9223C15.25 12.3365 14.9142 12.6723 14.5 12.6723C14.0858 12.6723 13.75 12.3365 13.75 11.9223V7.22229C13.75 6.80808 14.0858 6.47229 14.5 6.47229Z" fill="black"/>
<path fill-rule="evenodd" clip-rule="evenodd" d="M10 6.47229C10.4142 6.47229 10.75 6.80808 10.75 7.22229V11.9223C10.75 12.3365 10.4142 12.6723 10 12.6723C9.58579 12.6723 9.25 12.3365 9.25 11.9223V7.22229C9.25 6.80808 9.58579 6.47229 10 6.47229Z" fill="black"/>
</svg>

<svg xmlns="http://www.w3.org/2000/svg" fill="none" viewBox="0 0 24 24">
  <path fill="#000" fill-rule="evenodd" d="M18.84 3.23a.292.292 0 0 0-.134.013l-.1.03H10.4c-.521 0-1.124.234-1.47.58l-3.3 3.3c-.355.355-.58.862-.58 1.47v11.8c0 .185.164.35.35.35h13.2a.36.36 0 0 0 .35-.35v-17c0-.096-.039-.151-.064-.172a.097.097 0 0 0-.046-.02Zm1-1.137c.4.33.61.824.61 1.33v17a1.86 1.86 0 0 1-1.85 1.85H5.4a1.86 1.86 0 0 1-1.85-1.85v-11.8c0-.993.375-1.886 1.02-2.531l3.3-3.3c.654-.654 1.651-1.02 2.53-1.02h8.007c.532-.118 1.045.002 1.432.321Z" clip-rule="evenodd"/>
  <path fill="#000" fill-rule="evenodd" d="M14.5 6.472a.75.75 0 0 1 .75.75v4.7a.75.75 0 0 1-1.5 0v-4.7a.75.75 0 0 1 .75-.75Zm-4.5 0a.75.75 0 0 1 .75.75v4.7a.75.75 0 0 1-1.5 0v-4.7a.75.75 0 0 1 .75-.75Z" clip-rule="evenodd"/>
</svg>
